svgs/duotone/laptop-arrow-down.svg

<svg xmlns="http://www.w3.org/2000/svg" viewBox="0 0 640 512"><!--! Font Awesome Pro 6.6.0 by @fontawesome - https://fontawesome.com License - https://fontawesome.com/license (Commercial License) Copyright 2024 Fonticons, Inc. --><defs><style>.fa-secondary{opacity:.4}</style></defs><path class="fa-secondary" d="M0 403.2C0 445.6 34.4 480 76.8 480l486.4 0c42.4 0 76.8-34.4 76.8-76.8c0-10.6-8.6-19.2-19.2-19.2L19.2 384C8.6 384 0 392.6 0 403.2zM64 96l0 256 64 0 0-256 168 0 0-64L128 32C92.7 32 64 60.7 64 96zM344 32l0 64 168 0 0 256 64 0 0-256c0-35.3-28.7-64-64-64L344 32z"/><path class="fa-primary" d="M296 96L128 96l0 256 384 0 0-256L344 96l0 110.1 39-39c9.4-9.4 24.6-9.4 33.9 0s9.4 24.6 0 33.9l-80 80c-9.4 9.4-24.6 9.4-33.9 0l-80-80c-9.4-9.4-9.4-24.6 0-33.9s24.6-9.4 33.9 0l39 39L296 96z"/></svg>

<svg xmlns="http://www.w3.org/2000/svg" viewBox="0 0 640 512"><!--! Font Awesome Pro 6.4.0 by @fontawesome - https://fontawesome.com License - https://fontawesome.com/license (Commercial License) Copyright 2023 Fonticons, Inc. --><defs><style>.fa-secondary{opacity:.4}</style></defs><path class="fa-primary" d="M296 96H128V352H512V96H344V206.1l39-39c9.4-9.4 24.6-9.4 33.9 0s9.4 24.6 0 33.9l-80 80c-9.4 9.4-24.6 9.4-33.9 0l-80-80c-9.4-9.4-9.4-24.6 0-33.9s24.6-9.4 33.9 0l39 39V96z"/><path class="fa-secondary" d="M296 32H128C92.7 32 64 60.7 64 96V352h64V96H296V32zm48 64H512V352h64V96c0-35.3-28.7-64-64-64H344V96zM0 403.2C0 445.6 34.4 480 76.8 480H563.2c42.4 0 76.8-34.4 76.8-76.8c0-10.6-8.6-19.2-19.2-19.2H19.2C8.6 384 0 392.6 0 403.2z"/></svg>
